X: 489
T: MY OWN SWEETHEART
B: O'Neill's 489
Z: 1999 by John Chambers <jc@trillian.mit.edu>
N: "Moderate"
N: Collected by "J.O'Neill"
M: C
L: 1/8
K:F
(f>e) \
|dc AF DEFG|Acde f2fe|decA GAGF|D6 fe|
|dc AF DEFG|Acde f2ef|decA GAGF|F6||
||AG \
|FA cd/e/ f2ef|agefd cAFG|Acdf ecdB|c6 fe|
|dc AF DEFG|Acde f2ef|decA GAGF|F6|]
